icons/1-4x-playback-speed-32.svg

<svg id="icons" xmlns="http://www.w3.org/2000/svg" viewBox="0 0 32 32"><path d="M16,26h2V25H16V16L9,26h6v3h1Zm-1-6.94531V25H10.97363ZM14,5.415,13.09082,5,2.61475,28.585,3.52393,29ZM5,4,.981,5.60791l.37109.92871L4,5.47754V16H5Zm25.96943,9-3.78112,4.47464L31,21.98544V22H29.66576l-3.15069-3.72863L23.36438,22H22.01783l3.824-4.52536L22.06071,13h1.34648l3.10788,3.67791L29.62294,13Z"/><path fill="none" d="M0 0h32v32H0z"/></svg>

<svg xmlns="http://www.w3.org/2000/svg" viewBox="0 0 32 32"><path d="M16 26h2v-1h-2v-9L9 26h6v3h1zm-1-6.945V25h-4.026zm-1-13.64L13.09 5 2.616 28.585l.909.415zM5 4L.981 5.608l.371.929L4 5.477V16h1zm25.97 9l-3.782 4.475L31 21.985V22h-1.334l-3.15-3.729L23.363 22h-1.346l3.824-4.525L22.06 13h1.346l3.108 3.678L29.623 13z"/><path fill="none" d="M0 0h32v32H0z"/></svg>
